X:127
T:Reel 127
M:4/4
K:Gmaj
L:1/8
dc|BGAF DGG2|FEFG ABcA|BGAF G2DF|DEFG ABcA|BGAF D2GF|DEFD ABcA|BGAF GFAF|DEFG A2BA|BA|BG (3ABc dBge|dBgB A2dc|BBBB ABc2ec||dggf gbag:||2Bdef g2dc|
